X:155
T:Mary Nairn. Ru2.155
%%VWML:RutherfordVol2-2249-p78-0
F:http://www.vwml.org/record/RutherfordVol2/2249/p78
Z:vmp.Steve Mansfield 2015 www.village-music-project.org.uk
M:6/8
L:1/8
W:The first Man takes his Partner by the right
W:Hand & Leads her behind the 2d Man .| She
W:Leads him back again :| Cross over one Cu.
W:Hands round four with the 3d Cu. .|. Turn your
W:Partner & right Hand & Left at Top :|
Q:3/8=90
K:Gmix
|:D>ED A2D | c>dc AGA | G>AG TB2c | dgd BGB :|
|: dgd BGB | cfc AFA | dgd BgB | dgd BgB |
cac BgB | cfc AFA | GAG TB2d | g/^f/e/f/g dBG :|
T:Hay Jenny Come Down To Jock. Ru2.156
B:RUTHERFORD Complete Collection of 200 Country Dances Vol.2; 1759.
Z:vmp.Steve Mansfield 2015 www.village-music-project.org.uk
M:6/8
L:1/8
W:The first Cu. foot it to the 2d Wo. but not turn .|
W:The same to the 2d man :| Cross over one Cu.
W:&turn Lead up to the Top & cast off .|. Lead
W:thro the 3d Cu. & cast up into the 2d Cu.s
W:Place Right & Left at Top :||
Q:3/8=90
K:G
D | G>AG g2a | "^tr"f>ed "^tr"e2d | (e/f/g)B ABc | "^tr"B>AG G2 :|
|: B/c/ | d>ed dBg | G>AB A2f/g/ | {fg}a3 efg | "^tr"e2d d2g |
(g/a/b)g a2d | (e/f/g)B ABc | {cd}d3 dBg | "^tr"A2G G2 :|
